driving_time_log/assets/car.svg

<?xml version="1.0" encoding="UTF-8"?>
<svg fill="none" viewBox="0 0 297 297"
	xmlns="http://www.w3.org/2000/svg">
	<path d="m272.13 108.32 4.615-4.616c3.932-3.932 3.932-10.307 0-14.238-3.933-3.931-10.306-3.931-14.238 0l-4.73 4.731-9.085-36.339c-3.261-13.039-16.343-23.253-29.782-23.253h-140.82c-13.439 0-26.521 10.214-29.782 23.254l-9.084 36.338-4.73-4.731c-3.933-3.931-10.306-3.931-14.238 0-3.932 3.932-3.932 10.307 0 14.238l4.615 4.616c-14.712 7.212-24.868 22.34-24.868 39.799v35.363c0 14.272 6.791 26.98 17.303 35.087v17.644c0 14.434 11.742 26.176 26.177 26.176h19.696c14.434 0 26.176-11.742 26.176-26.176v-8.432h118.3v8.432c0 14.434 11.742 26.176 26.176 26.176h19.696c14.434 0 26.177-11.742 26.177-26.176v-17.642c10.512-8.107 17.304-20.815 17.304-35.089v-35.363c0-17.459-10.156-32.587-24.868-39.799zm-213.78-7.618 9.49-37.959c1.028-4.114 6.009-8.003 10.248-8.003h140.82c4.239 0 9.22 3.889 10.248 8.003l9.491 37.96c0.262 1.053 0.21 1.949-0.141 2.399-0.353 0.45-1.21 0.719-2.294 0.719h-175.43c-1.084 0-1.941-0.269-2.294-0.719-0.35-0.45-0.402-1.346-0.14-2.4zm-38.213 47.417c0-13.322 10.84-24.162 24.162-24.162h208.4c13.322 0 24.162 10.84 24.162 24.162v35.363c0 13.323-10.84 24.163-24.162 24.163h-208.4c-13.322 0-24.162-10.84-24.162-24.163v-35.363zm49.08 88.094c0 3.273-2.767 6.04-6.04 6.04h-19.697c-3.274 0-6.041-2.767-6.041-6.04v-8.965c2.237 0.349 4.526 0.533 6.859 0.533h24.918v8.432zm190.34 0c0 3.273-2.767 6.04-6.041 6.04h-19.696c-3.273 0-6.04-2.767-6.04-6.04v-8.432h24.92c2.332 0 4.621-0.185 6.858-0.533v8.965z"/>
	<path d="m113.89 175.87h69.219c5.56 0 10.067-4.508 10.067-10.068s-4.508-10.067-10.067-10.067h-69.219c-5.56 0-10.067 4.508-10.067 10.067-1e-3 5.56 4.507 10.068 10.067 10.068z"/>
	<path d="m61.979 193.18c15.093 0 27.372-12.279 27.372-27.372s-12.279-27.371-27.372-27.371-27.371 12.278-27.371 27.371c-1e-3 15.092 12.278 27.372 27.371 27.372zm0-34.609c3.99 0 7.236 3.247 7.236 7.236 0 3.99-3.246 7.236-7.236 7.236-3.989 0-7.236-3.246-7.236-7.236-1e-3 -3.989 3.246-7.236 7.236-7.236z"/>
	<path d="m235.02 193.18c15.093 0 27.371-12.279 27.371-27.372s-12.278-27.371-27.371-27.371-27.372 12.278-27.372 27.371c-1e-3 15.092 12.279 27.372 27.372 27.372zm0-34.609c3.989 0 7.236 3.247 7.236 7.236 0 3.99-3.247 7.236-7.236 7.236-3.99 0-7.236-3.246-7.236-7.236-1e-3 -3.989 3.245-7.236 7.236-7.236z"/>
</svg>

<?xml version="1.0" encoding="iso-8859-1"?>
<!-- Generator: Adobe Illustrator 18.0.0, SVG Export Plug-In . SVG Version: 6.00 Build 0)  -->
<!DOCTYPE svg PUBLIC "-//W3C//DTD SVG 1.1//EN" "http://www.w3.org/Graphics/SVG/1.1/DTD/svg11.dtd">
<svg version="1.1" id="Capa_1" xmlns="http://www.w3.org/2000/svg" xmlns:xlink="http://www.w3.org/1999/xlink" x="0px" y="0px"
	 viewBox="0 0 297 297" style="enable-background:new 0 0 297 297;" xml:space="preserve">
<g>
	<path d="M272.132,108.323l4.615-4.616c3.932-3.932,3.932-10.307,0-14.238c-3.933-3.931-10.306-3.931-14.238,0l-4.73,4.731
		l-9.085-36.339c-3.261-13.039-16.343-23.253-29.782-23.253H78.087c-13.439,0-26.521,10.214-29.782,23.254L39.221,94.2l-4.73-4.731
		c-3.933-3.931-10.306-3.931-14.238,0c-3.932,3.932-3.932,10.307,0,14.238l4.615,4.616C10.156,115.535,0,130.663,0,148.122v35.363
		c0,14.272,6.791,26.98,17.303,35.087v17.644c0,14.434,11.742,26.176,26.177,26.176h19.696c14.434,0,26.176-11.742,26.176-26.176
		v-8.432h118.295v8.432c0,14.434,11.742,26.176,26.176,26.176h19.696c14.434,0,26.177-11.742,26.177-26.176v-17.642
		C290.208,210.467,297,197.759,297,183.485v-35.363C297,130.663,286.844,115.535,272.132,108.323z M58.349,100.705l9.49-37.959
		c1.028-4.114,6.009-8.003,10.248-8.003h140.824c4.239,0,9.22,3.889,10.248,8.003l9.491,37.96c0.262,1.053,0.21,1.949-0.141,2.399
		c-0.353,0.45-1.21,0.719-2.294,0.719H60.783c-1.084,0-1.941-0.269-2.294-0.719C58.139,102.655,58.087,101.759,58.349,100.705z
		 M20.136,148.122c0-13.322,10.84-24.162,24.162-24.162h208.404c13.322,0,24.162,10.84,24.162,24.162v35.363
		c0,13.323-10.84,24.163-24.162,24.163H44.298c-13.322,0-24.162-10.84-24.162-24.163V148.122z M69.216,236.216
		c0,3.273-2.767,6.04-6.04,6.04H43.479c-3.274,0-6.041-2.767-6.041-6.04v-8.965c2.237,0.349,4.526,0.533,6.859,0.533h24.918V236.216
		z M259.56,236.216c0,3.273-2.767,6.04-6.041,6.04h-19.696c-3.273,0-6.04-2.767-6.04-6.04v-8.432h24.92
		c2.332,0,4.621-0.185,6.858-0.533V236.216z"/>
	<path d="M113.89,175.872h69.219c5.56,0,10.067-4.508,10.067-10.068c0-5.56-4.508-10.067-10.067-10.067H113.89
		c-5.56,0-10.067,4.508-10.067,10.067C103.822,171.364,108.33,175.872,113.89,175.872z"/>
	<path d="M61.979,193.176c15.093,0,27.372-12.279,27.372-27.372c0-15.093-12.279-27.371-27.372-27.371s-27.371,12.278-27.371,27.371
		C34.607,180.896,46.886,193.176,61.979,193.176z M61.979,158.567c3.99,0,7.236,3.247,7.236,7.236c0,3.99-3.246,7.236-7.236,7.236
		c-3.989,0-7.236-3.246-7.236-7.236C54.742,161.814,57.989,158.567,61.979,158.567z"/>
	<path d="M235.02,193.176c15.093,0,27.371-12.279,27.371-27.372c0-15.093-12.278-27.371-27.371-27.371
		c-15.093,0-27.372,12.278-27.372,27.371C207.647,180.896,219.927,193.176,235.02,193.176z M235.02,158.567
		c3.989,0,7.236,3.247,7.236,7.236c0,3.99-3.247,7.236-7.236,7.236c-3.99,0-7.236-3.246-7.236-7.236
		C227.783,161.814,231.029,158.567,235.02,158.567z"/>
</g>
<g>
</g>
<g>
</g>
<g>
</g>
<g>
</g>
<g>
</g>
<g>
</g>
<g>
</g>
<g>
</g>
<g>
</g>
<g>
</g>
<g>
</g>
<g>
</g>
<g>
</g>
<g>
</g>
<g>
</g>
</svg>
